images/logo.svg

<svg height="45" viewBox="0 0 159 45" width="159" xmlns="http://www.w3.org/2000/svg"><g fill="none" fill-rule="evenodd" transform="translate(0 -6)"><g transform="translate(0 17.478992)"><path d="m19.7492768 2.13655126c2.707811 1.4440874 5.389701 3.07068235 7.9725361 4.88510924 1.744108-.76404705 3.3888525-1.51596638 4.9576857-2.2874084-2.2616008-1.69374118-4.6123819-3.27448739-7.0171649-4.7342521-1.8533462.7211563-3.8221023 1.41007059-5.9130569 2.13655126" fill="#999"/><path d="m22.2179364 11.1669782c3.1210028 2.0643764 6.0241465 4.3630252 8.6557377 6.7687529 1.7391706-1.3154151 3.3225072-2.5125109 4.7916682-3.6170219-2.225188-2.1013512-4.6416972-4.1405848-7.2411957-6.03635626-1.8734041.87437983-3.9338091 1.81649746-6.2062102 2.88462526" fill="#4a4a4a"/><path d="m0 10.6871933c2.86210222 1.2852437 6.04297011 2.7825748 9.46885246 4.6472874 3.39903564-1.833358 6.53886214-3.311758 9.36054004-4.5816202-3.1833366-1.92771764-6.3691418-3.51023865-9.41824496-4.83689411-3.03459981 1.30802016-6.21639344 2.8680605-9.41114754 4.77122691" fill="#01aa50"/><path d="m24.3780135 25.6223462c2.9657859 2.5971093 5.4773385 5.102521 7.6716683 7.3810555 2.0758341-2.1800336 3.8622179-4.2127597 5.4671552-6.057358-1.8700096-2.1930487-3.9776277-4.5073748-6.4191321-6.831758-1.9656702 1.6209748-4.1834522 3.4504874-6.7196914 5.5080605" fill="#01aa50"/><path d="m10.8003857 5.21344538c3.0253424 1.34469916 6.1556027 2.94141849 9.2621022 4.85700842 2.384108-1.05245044 4.5494311-1.97179162 6.5184957-2.818958-2.6627579-1.83247059-5.419325-3.45758656-8.189161-4.88510925-2.3458438.82498152-4.8848602 1.73692774-7.5914369 2.84705883" fill="#4a4a4a"/><path d="m11.4175506 16.4274555c3.836297 2.2036974 7.610569 4.7957781 11.0435487 7.6392874 2.6815815-2.0013715 5.0348313-3.7672874 7.1162199-5.3291026-2.7439151-2.4716907-5.7760463-4.8167798-9.0204822-6.9057075-2.7257087 1.2908638-5.7828351 2.777842-9.1392864 4.5955227" fill="#01aa50"/></g><text font-family="FuturaICG, Futura ICG" font-size="40.336135" letter-spacing="-1.34453784"><tspan fill="#4a4a4a" x="43.563025" y="41">net</tspan> <tspan fill="#01aa50" x="95.994904" y="41">law</tspan></text></g></svg>

<svg width="159px" height="45px" viewBox="0 0 159 45" version="1.1" xmlns="http://www.w3.org/2000/svg" xmlns:xlink="http://www.w3.org/1999/xlink">
    <!-- Generator: Sketch 51.1 (57501) - http://www.bohemiancoding.com/sketch -->
    <desc>Created with Sketch.</desc>
    <defs>
        <path d="M0,10.6871933 C2.86210222,11.972437 6.04297011,13.4697681 9.46885246,15.3344807 C12.8678881,13.5011227 16.0077146,12.0227227 18.8293925,10.7528605 C15.6460559,8.82514286 12.4602507,7.24262185 9.41114754,5.91596639 C6.37654773,7.22398655 3.1947541,8.78402689 0,10.6871933" id="path-1"></path>
        <path d="M24.3780135,25.6223462 C27.3437994,28.2194555 29.855352,30.7248672 32.0496818,33.0034017 C34.1255159,30.8233681 35.9118997,28.790642 37.516837,26.9460437 C35.6468274,24.752995 33.5392093,22.4386689 31.0977049,20.1142857 C29.1320347,21.7352605 26.9142527,23.5647731 24.3780135,25.6223462" id="path-3"></path>
        <path d="M11.4175506,16.4274555 C15.2538476,18.6311529 19.0281196,21.2232336 22.4610993,24.0667429 C25.1426808,22.0653714 27.4959306,20.2994555 29.5773192,18.7376403 C26.8334041,16.2659496 23.8012729,13.9208605 20.556837,11.8319328 C17.8311283,13.1227966 14.7740019,14.6097748 11.4175506,16.4274555" id="path-5"></path>
    </defs>
    <g id="Wireframes---Desktop" stroke="none" stroke-width="1" fill="none" fill-rule="evenodd">
        <g id="Dash---Contacts---Key-People---Family---Immediate-Family-(list)" transform="translate(-35.000000, -78.000000)">
            <g id="logo" transform="translate(35.000000, 72.000000)">
                <g id="Group-2" transform="translate(0.000000, 17.478992)">
                    <path d="M19.7492768,2.13655126 C22.4570878,3.58063866 25.1389778,5.20723361 27.7218129,7.0216605 C29.4659209,6.25761345 31.1106654,5.50569412 32.6794986,4.7342521 C30.4178978,3.04051092 28.0671167,1.45976471 25.6623337,0 C23.8089875,0.721156303 21.8402314,1.41007059 19.7492768,2.13655126" id="Fill-116" fill="#999999"></path>
                    <path d="M22.2179364,11.1669782 C25.3389392,13.2313546 28.2420829,15.5300034 30.8736741,17.9357311 C32.6128447,16.620316 34.1961813,15.4232202 35.6653423,14.3187092 C33.4401543,12.217358 31.0236451,10.1781244 28.4241466,8.28235294 C26.5507425,9.15673277 24.4903375,10.0988504 22.2179364,11.1669782" id="Fill-118" fill="#4A4A4A"></path>
                    <mask id="mask-2" fill="white">
                        <use xlink:href="#path-1"></use>
                    </mask>
                    <g id="Clip-122"></g>
                    <path d="M0,10.6871933 C2.86210222,11.972437 6.04297011,13.4697681 9.46885246,15.3344807 C12.8678881,13.5011227 16.0077146,12.0227227 18.8293925,10.7528605 C15.6460559,8.82514286 12.4602507,7.24262185 9.41114754,5.91596639 C6.37654773,7.22398655 3.1947541,8.78402689 0,10.6871933" id="Fill-121" fill="#01AA50"></path>
                    <mask id="mask-4" fill="white">
                        <use xlink:href="#path-3"></use>
                    </mask>
                    <g id="Clip-125"></g>
                    <path d="M24.3780135,25.6223462 C27.3437994,28.2194555 29.855352,30.7248672 32.0496818,33.0034017 C34.1255159,30.8233681 35.9118997,28.790642 37.516837,26.9460437 C35.6468274,24.752995 33.5392093,22.4386689 31.0977049,20.1142857 C29.1320347,21.7352605 26.9142527,23.5647731 24.3780135,25.6223462" id="Fill-124" fill="#01AA50"></path>
                    <path d="M10.8003857,5.21344538 C13.8257281,6.55814454 16.9559884,8.15486387 20.0624879,10.0704538 C22.4465959,9.01800336 24.611919,8.09866218 26.5809836,7.2514958 C23.9182257,5.41902521 21.1616586,3.79390924 18.3918226,2.36638655 C16.0459788,3.19136807 13.5069624,4.10331429 10.8003857,5.21344538" id="Fill-127" fill="#4A4A4A"></path>
                    <mask id="mask-6" fill="white">
                        <use xlink:href="#path-5"></use>
                    </mask>
                    <g id="Clip-130"></g>
                    <path d="M11.4175506,16.4274555 C15.2538476,18.6311529 19.0281196,21.2232336 22.4610993,24.0667429 C25.1426808,22.0653714 27.4959306,20.2994555 29.5773192,18.7376403 C26.8334041,16.2659496 23.8012729,13.9208605 20.556837,11.8319328 C17.8311283,13.1227966 14.7740019,14.6097748 11.4175506,16.4274555" id="Fill-129" fill="#01AA50"></path>
                </g>
                <text id="netlaw" font-family="FuturaICG, Futura ICG" font-size="40.3361345" font-weight="normal" letter-spacing="-1.34453784">
                    <tspan x="43.5630252" y="41" fill="#4A4A4A">net</tspan>
                    <tspan x="95.9949038" y="41" fill="#01AA50">law</tspan>
                </text>
            </g>
        </g>
    </g>
</svg>
